;FLAVOR:Marlin
;TIME:18983
;Filament used: 16.038m
;Layer height: 0.15
;Generated with Cura_SteamEngine 3.6.0
M140 S60
M105
M190 S60
M104 S200
M105
M109 S200
M82 ;absolute extrusion mode
; Ender 3 Custom Start G-code
G28 ; Home all axes
G92 E0 ; Reset Extruder
G1 Z2.0 F3000 ; Move Z Axis up little to prevent scratching of Heat Bed
G1 X0.1 Y20 Z0.3 F5000.0 ; Move to start position
G1 X0.1 Y200.0 Z0.3 F1500.0 E15 ; Draw the first line
G1 X0.4 Y200.0 Z0.3 F5000.0 ; Move to side a little
G1 X0.4 Y20 Z0.3 F1500.0 E30 ; Draw the second line
G92 E0 ; Reset Extruder
G1 Z2.0 F3000 ; Move Z Axis up little to prevent scratching of Heat Bed
; End of custom start GCode
G92 E0
G1 F2400 E-5
;LAYER_COUNT:67
;LAYER:0
M107
M204 S5000
M205 X30 Y30
G0 F3600 X44.003 Y48.517 Z0.2
M204 S500
M205 X20 Y20
;TYPE:SKIRT
G1 F2400 E0
G1 F1800 X44.585 Y48.102 E0.02377
G1 X45.21 Y47.753 E0.04758
G1 X45.87 Y47.477 E0.07138
G1 X46.556 Y47.276 E0.09515
G1 X47.261 Y47.153 E0.11896
G1 X48.009 Y47.109 E0.14388
G1 X186.991 Y47.11 E4.76644
G1 X187.705 Y47.15 E4.79022
G1 X188.41 Y47.269 E4.814
G1 X189.098 Y47.467 E4.83781
G1 X189.759 Y47.74 E4.8616
G1 X190.386 Y48.084 E4.88539
G1 X190.97 Y48.497 E4.90918
G1 X191.504 Y48.972 E4.93295
G1 X191.983 Y49.504 E4.95676
G1 X192.398 Y50.086 E4.98053
G1 X192.747 Y50.711 E5.00434
G1 X193.023 Y51.371 E5.02813
G1 X193.224 Y52.057 E5.05191
G1 X193.347 Y52.762 E5.07571
G1 X193.391 Y53.51 E5.10063
G1 X193.391 Y181.491 E9.3573
G1 X193.351 Y182.205 E9.38109
G1 X193.232 Y182.91 E9.40487
G1 X193.034 Y183.598 E9.42868
G1 X192.761 Y184.259 E9.45246
G1 X192.417 Y184.886 E9.47625
G1 X192.004 Y185.47 E9.50004
G1 X191.529 Y186.004 E9.52381
G1 X190.997 Y186.483 E9.54762
G1 X190.415 Y186.898 E9.5714
G1 X189.79 Y187.247 E9.5952
G1 X189.13 Y187.523 E9.619
G1 X188.444 Y187.724 E9.64277
G1 X187.739 Y187.847 E9.66658
G1 X186.991 Y187.891 E9.6915
G1 X48.009 Y187.891 E14.31406
G1 X47.295 Y187.851 E14.33784
G1 X46.59 Y187.732 E14.36162
G1 X45.902 Y187.534 E14.38543
G1 X45.241 Y187.261 E14.40922
G1 X44.614 Y186.917 E14.43301
G1 X44.03 Y186.504 E14.4568
G1 X43.496 Y186.029 E14.48057
G1 X43.017 Y185.497 E14.50438
G1 X42.602 Y184.915 E14.52815
G1 X42.253 Y184.29 E14.55196
G1 X41.977 Y183.63 E14.57576
G1 X41.776 Y182.944 E14.59953
G1 X41.653 Y182.239 E14.62333
G1 X41.609 Y181.491 E14.64826
G1 X41.609 Y53.509 E18.90495
G1 X41.649 Y52.795 E18.92874
G1 X41.768 Y52.09 E18.95252
G1 X41.966 Y51.402 E18.97633
G1 X42.239 Y50.741 E19.00012
G1 X42.583 Y50.114 E19.0239
G1 X42.996 Y49.53 E19.04769
G1 X43.471 Y48.996 E19.07146
G1 X44.003 Y48.517 E19.09527
M204 S5000
M205 X30 Y30
G0 F3600 X44.393 Y48.721
M204 S500
M205 X20 Y20
G1 F1800 X44.968 Y48.336 E19.11829
G1 X45.585 Y48.021 E19.14133
G1 X46.233 Y47.778 E19.16435
G1 X46.906 Y47.611 E19.18741
G1 X47.592 Y47.523 E19.21042
G1 X48.009 Y47.509 E19.22429
G1 X186.991 Y47.51 E23.84685
G1 X187.682 Y47.55 E23.86987
G1 X188.365 Y47.669 E23.89293
G1 X189.028 Y47.867 E23.91595
G1 X189.665 Y48.139 E23.93898
G1 X190.266 Y48.483 E23.96202
G1 X190.824 Y48.894 E23.98507
G1 X191.33 Y49.366 E24.00808
G1 X191.779 Y49.894 E24.03113
G1 X192.164 Y50.469 E24.05415
G1 X192.479 Y51.086 E24.07719
G1 X192.722 Y51.734 E24.10021
G1 X192.889 Y52.407 E24.12327
G1 X192.977 Y53.094 E24.14631
G1 X192.991 Y53.51 E24.16015
G1 X192.991 Y181.491 E28.41682
G1 X192.951 Y182.182 E28.43984
G1 X192.832 Y182.865 E28.4629
G1 X192.634 Y183.528 E28.48591
G1 X192.362 Y184.165 E28.50895
G1 X192.018 Y184.766 E28.53198
G1 X191.607 Y185.324 E28.55503
G1 X191.135 Y185.83 E28.57805
G1 X190.607 Y186.279 E28.6011
G1 X190.032 Y186.664 E28.62411
G1 X189.415 Y186.979 E28.64716
G1 X188.767 Y187.222 E28.67017
G1 X188.094 Y187.389 E28.69324
G1 X187.408 Y187.477 E28.71624
G1 X186.991 Y187.491 E28.73012
G1 X48.009 Y187.491 E33.35268
G1 X47.318 Y187.451 E33.3757
G1 X46.635 Y187.332 E33.39876
G1 X45.972 Y187.134 E33.42177
G1 X45.335 Y186.862 E33.44481
G1 X44.734 Y186.518 E33.46784
G1 X44.176 Y186.107 E33.49089
G1 X43.67 Y185.635 E33.51391
G1 X43.221 Y185.107 E33.53696
G1 X42.836 Y184.532 E33.55997
G1 X42.521 Y183.915 E33.58302
G1 X42.278 Y183.267 E33.60603
G1 X42.111 Y182.594 E33.6291
G1 X42.023 Y181.908 E33.6521
G1 X42.009 Y181.491 E33.66598
G1 X42.009 Y53.509 E37.92268
G1 X42.049 Y52.818 E37.9457
G1 X42.168 Y52.135 E37.96876
G1 X42.366 Y51.472 E37.99177
G1 X42.638 Y50.835 E38.01481
G1 X42.982 Y50.234 E38.03784
G1 X43.393 Y49.676 E38.06089
G1 X43.865 Y49.17 E38.08391
G1 X44.393 Y48.721 E38.10696
M204 S5000
M205 X30 Y30
G0 F3600 X44.258 Y49.351
M204 S500
M205 X20 Y20
G1 F1800 X44.78 Y48.933 E38.1292
G1 X45.349 Y48.581 E38.15145
G1 X45.956 Y48.299 E38.17371
G1 X46.592 Y48.091 E38.19597
G1 X47.248 Y47.961 E38.21821
G1 X48.009 Y47.909 E38.24358
G1 X186.991 Y47.91 E42.86614
G1 X187.659 Y47.95 E42.8884
G1 X188.317 Y48.069 E42.91064
G1 X188.957 Y48.266 E42.93291
G1 X189.568 Y48.538 E42.95516
G1 X190.142 Y48.881 E42.9774
G1 X190.672 Y49.29 E42.99966
G1 X191.149 Y49.759 E43.02191
G1 X191.567 Y50.281 E43.04416
G1 X191.919 Y50.85 E43.06641
G1 X192.201 Y51.457 E43.08867
G1 X192.409 Y52.093 E43.11093
G1 X192.539 Y52.749 E43.13317
G1 X192.591 Y53.51 E43.15854
G1 X192.591 Y181.491 E47.41521
G1 X192.551 Y182.159 E47.43746
G1 X192.432 Y182.817 E47.4597
G1 X192.235 Y183.457 E47.48198
G1 X191.963 Y184.068 E47.50422
G1 X191.62 Y184.642 E47.52646
G1 X191.211 Y185.172 E47.54873
G1 X190.742 Y185.649 E47.57098
G1 X190.22 Y186.067 E47.59322
G1 X189.651 Y186.419 E47.61547
G1 X189.044 Y186.701 E47.63773
G1 X188.408 Y186.909 E47.65999
G1 X187.752 Y187.039 E47.68223
G1 X186.991 Y187.091 E47.7076
G1 X48.009 Y187.091 E52.33016
G1 X47.341 Y187.051 E52.35242
G1 X46.683 Y186.932 E52.37466
G1 X46.043 Y186.735 E52.39693
G1 X45.432 Y186.463 E52.41918
G1 X44.858 Y186.12 E52.44142
G1 X44.328 Y185.711 E52.46368
G1 X43.851 Y185.242 E52.48593
G1 X43.433 Y184.72 E52.50817
G1 X43.081 Y184.151 E52.53043
G1 X42.799 Y183.544 E52.55269
G1 X42.591 Y182.908 E52.57495
G1 X42.461 Y182.252 E52.59719
G1 X42.409 Y181.491 E52.62256
G1 X42.409 Y53.509 E56.87926
G1 X42.449 Y52.841 E56.90151
G1 X42.568 Y52.183 E56.92375
G1 X42.765 Y51.543 E56.94603
G1 X43.037 Y50.932 E56.96827
G1 X43.38 Y50.358 E56.99051
G1 X43.789 Y49.828 E57.01278
G1 X44.258 Y49.351 E57.03503
M204 S5000
M205 X30 Y30
G0 F3600 X44.649 Y49.54
M204 S500
M205 X20 Y20
G1 F1800 X45.166 Y49.155 E57.05647
G1 X45.727 Y48.836 E57.07793
G1 X46.323 Y48.59 E57.09938
G1 X46.944 Y48.419 E57.1208
G1 X47.582 Y48.327 E57.14224
G1 X48.009 Y48.309 E57.15645
G1 X186.991 Y48.31 E61.77901
G1 X187.634 Y48.35 E61.80044
G1 X188.268 Y48.469 E61.8219
G1 X188.882 Y48.666 E61.84334
G1 X189.467 Y48.937 E61.86479
G1 X190.014 Y49.279 E61.88624
G1 X190.514 Y49.685 E61.90767
G1 X190.96 Y50.151 E61.92912
G1 X191.345 Y50.667 E61.95053
G1 X191.664 Y51.228 E61.972
G1 X191.91 Y51.824 E61.99344
G1 X192.081 Y52.445 E62.01487
G1 X192.173 Y53.083 E62.03631
G1 X192.191 Y53.51 E62.05052
G1 X192.191 Y181.491 E66.30719
G1 X192.151 Y182.134 E66.32861
G1 X192.032 Y182.768 E66.35007
G1 X191.835 Y183.382 E66.37152
G1 X191.564 Y183.967 E66.39296
G1 X191.222 Y184.514 E66.41442
G1 X190.816 Y185.014 E66.43584
G1 X190.351 Y185.46 E66.45727
G1 X189.834 Y185.845 E66.47871
G1 X189.273 Y186.164 E66.50017
G1 X188.677 Y186.41 E66.52162
G1 X188.056 Y186.581 E66.54304
G1 X187.418 Y186.673 E66.56448
G1 X186.991 Y186.691 E66.5787
G1 X48.009 Y186.691 E71.20126
G1 X47.366 Y186.651 E71.22268
G1 X46.732 Y186.532 E71.24414
G1 X46.118 Y186.335 E71.26559
G1 X45.533 Y186.064 E71.28703
G1 X44.986 Y185.722 E71.30849
G1 X44.486 Y185.316 E71.32991
G1 X44.04 Y184.851 E71.35134
G1 X43.655 Y184.334 E71.37278
G1 X43.336 Y183.773 E71.39424
G1 X43.09 Y183.177 E71.41569
G1 X42.919 Y182.556 E71.43711
G1 X42.827 Y181.918 E71.45855
G1 X42.809 Y181.491 E71.47276
G1 X42.809 Y53.509 E75.72946
G1 X42.849 Y52.866 E75.75089
G1 X42.968 Y52.232 E75.77235
G1 X43.165 Y51.618 E75.79379
G1 X43.436 Y51.033 E75.81524
G1 X43.778 Y50.486 E75.83669
G1 X44.184 Y49.986 E75.85811
G1 X44.649 Y49.54 E75.87954
M204 S5000
M205 X30 Y30
G1 F2400 E70.87954
;MESH:5-pack_base.scad
G0 F3600 X48.614 Y52.835
G0 X48.614 Y54.114
G0 X186.33 Y180.83
G0 X186.4 Y180.9
M204 S500
M205 X20 Y20
;TYPE:WALL-INNER
G1 F2400 E75.87954
G1 F1800 X48.6 Y180.9 E80.46279
G1 X48.6 Y54.1 E84.68018
G1 X186.4 Y54.1 E89.26342
G1 X186.4 Y180.9 E93.48081
M204 S5000
M205 X30 Y30
G0 F3600 X186.8 Y181.3
M204 S500
M205 X20 Y20
;TYPE:WALL-OUTER
G1 F1800 X48.2 Y181.3 E98.09066
G1 X48.2 Y53.7 E102.33466
G1 X186.8 Y53.7 E106.94451
G1 X186.8 Y181.3 E111.1885
M204 S5000
M205 X30 Y30
G0 F3600 X186.6 Y181.3
G0 X186.33 Y180.83
G0 X186.01 Y180.51
M204 S500
M205 X20 Y20
;TYPE:SKIN
G1 F1800 X48.99 Y180.51 E115.74581
G1 X48.99 Y54.49 E119.93725
G1 X186.01 Y54.49 E124.49455
G1 X186.01 Y180.51 E128.686
M204 S5000
M205 X30 Y30
G0 F3600 X185.829 Y55.156
M204 S500
M205 X20 Y20
G1 F1800 X185.343 Y54.669 E128.70888
M204 S5000
M205 X30 Y30
G0 F3600 X184.777 Y54.669
M204 S500
M205 X20 Y20
G1 F1800 X185.829 Y55.722 E128.75839
M204 S5000
M205 X30 Y30
G0 F3600 X185.829 Y56.287
M204 S500
M205 X20 Y20
G1 F1800 X184.211 Y54.669 E128.83449
M204 S5000
M205 X30 Y30
G0 F3600 X183.646 Y54.669
M204 S500
M205 X20 Y20
G1 F1800 X185.829 Y56.853 E128.9372
M204 S5000
M205 X30 Y30
G0 F3600 X185.829 Y57.419
M204 S500
M205 X20 Y20
G1 F1800 X183.08 Y54.669 E129.06652
M204 S5000
M205 X30 Y30
G0 F3600 X182.514 Y54.669
M204 S500
M205 X20 Y20
G1 F1800 X185.829 Y57.984 E129.22245
M204 S5000
M205 X30 Y30
G0 F3600 X185.829 Y58.55
M204 S500
M205 X20 Y20
G1 F1800 X181.949 Y54.669 E129.40498
M204 S5000
M205 X30 Y30
G0 F3600 X181.383 Y54.669
M204 S500
M205 X20 Y20
G1 F1800 X185.829 Y59.116 E129.61413
M204 S5000
M205 X30 Y30
G0 F3600 X185.829 Y59.681
M204 S500
M205 X20 Y20
G1 F1800 X180.817 Y54.669 E129.84988
M204 S5000
M205 X30 Y30
G0 F3600 X180.252 Y54.669
M204 S500
M205 X20 Y20
G1 F1800 X185.829 Y60.247 E130.11223
M204 S5000
M205 X30 Y30
G0 F3600 X185.829 Y60.813
M204 S500
M205 X20 Y20
G1 F1800 X179.686 Y54.669 E130.4012
M204 S5000
M205 X30 Y30
G0 F3600 X179.12 Y54.669
M204 S500
M205 X20 Y20
G1 F1800 X185.829 Y61.378 E130.71677
M204 S5000
M205 X30 Y30
G0 F3600 X185.829 Y61.944
M204 S500
M205 X20 Y20
G1 F1800 X178.555 Y54.669 E131.05894
M204 S5000
M205 X30 Y30
G0 F3600 X177.989 Y54.669
M204 S500
M205 X20 Y20
G1 F1800 X185.829 Y62.51 E131.42773
M204 S5000
M205 X30 Y30
G0 F3600 X185.829 Y63.076
M204 S500
M205 X20 Y20
G1 F1800 X177.423 Y54.669 E131.82315
M204 S5000
M205 X30 Y30
G0 F3600 X176.858 Y54.669
M204 S500
M205 X20 Y20
G1 F1800 X185.829 Y63.641 E132.24514
M204 S5000
M205 X30 Y30
G0 F3600 X185.829 Y64.207
M204 S500
M205 X20 Y20
G1 F1800 X176.292 Y54.669 E132.69375
M204 S5000
M205 X30 Y30
G0 F3600 X175.726 Y54.669
M204 S500
M205 X20 Y20
G1 F1800 X185.829 Y64.773 E133.16899
M204 S5000
M205 X30 Y30
G0 F3600 X185.829 Y65.338
M204 S500
M205 X20 Y20
G1 F1800 X175.16 Y54.669 E133.67083
M204 S5000
M205 X30 Y30
G0 F3600 X174.595 Y54.669
M204 S500
M205 X20 Y20
G1 F1800 X185.829 Y65.904 E134.19927
M204 S5000
M205 X30 Y30
G0 F3600 X185.829 Y66.47
M204 S500
M205 X20 Y20
G1 F1800 X174.029 Y54.669 E134.75433
M204 S5000
M205 X30 Y30
G0 F3600 X173.463 Y54.669
M204 S500
M205 X20 Y20
G1 F1800 X185.829 Y67.035 E135.33598
M204 S5000
M205 X30 Y30
G0 F3600 X185.829 Y67.601
M204 S500
M205 X20 Y20
G1 F1800 X172.898 Y54.669 E135.94424
M204 S5000
M205 X30 Y30
G0 F3600 X172.332 Y54.669
M204 S500
M205 X20 Y20
G1 F1800 X185.829 Y68.167 E136.57912
M204 S5000
M205 X30 Y30
G0 F3600 X185.829 Y68.732
M204 S500
M205 X20 Y20
G1 F1800 X171.766 Y54.669 E137.2406
M204 S5000
M205 X30 Y30
G0 F3600 X171.201 Y54.669
M204 S500
M205 X20 Y20
G1 F1800 X185.829 Y69.298 E137.92868
M204 S5000
M205 X30 Y30
G0 F3600 X185.829 Y69.864
M204 S500
M205 X20 Y20
G1 F1800 X170.635 Y54.669 E138.64339
M204 S5000
M205 X30 Y30
G0 F3600 X170.069 Y54.669
M204 S500
M205 X20 Y20
G1 F1800 X185.829 Y70.429 E139.38469
M204 S5000
M205 X30 Y30
G0 F3600 X185.829 Y70.995
M204 S500
M205 X20 Y20
G1 F1800 X169.504 Y54.669 E140.15259
M204 S5000
M205 X30 Y30
G0 F3600 X168.938 Y54.669
M204 S500
M205 X20 Y20
G1 F1800 X185.829 Y71.561 E140.94711
M204 S5000
M205 X30 Y30
G0 F3600 X185.829 Y72.127
M204 S500
M205 X20 Y20
G1 F1800 X168.372 Y54.669 E141.76826
M204 S5000
M205 X30 Y30
G0 F3600 X167.807 Y54.669
M204 S500
M205 X20 Y20
G1 F1800 X185.829 Y72.692 E142.61598
M204 S5000
M205 X30 Y30
G0 F3600 X185.829 Y73.258
M204 S500
M205 X20 Y20
G1 F1800 X167.241 Y54.669 E143.49033
M204 S5000
M205 X30 Y30
G0 F3600 X166.675 Y54.669
M204 S500
M205 X20 Y20
G1 F1800 X185.829 Y73.824 E144.3913
M204 S5000
M205 X30 Y30
G0 F3600 X185.829 Y74.389
M204 S500
M205 X20 Y20
G1 F1800 X166.109 Y54.669 E145.31887
M204 S5000
M205 X30 Y30
G0 F3600 X165.544 Y54.669
M204 S500
M205 X20 Y20
G1 F1800 X185.829 Y74.955 E146.27304
M204 S5000
M205 X30 Y30
G0 F3600 X185.829 Y75.521
M204 S500
M205 X20 Y20
G1 F1800 X164.978 Y54.669 E147.25383
M204 S5000
M205 X30 Y30
G0 F3600 X164.412 Y54.669
M204 S500
M205 X20 Y20
G1 F1800 X185.829 Y76.086 E148.26122
M204 S5000
M205 X30 Y30
G0 F3600 X185.829 Y76.652
M204 S500
M205 X20 Y20
G1 F1800 X163.847 Y54.669 E149.29521
M204 S5000
M205 X30 Y30
G0 F3600 X163.281 Y54.669
M204 S500
M205 X20 Y20
G1 F1800 X185.829 Y77.218 E150.35582
M204 S5000
M205 X30 Y30
G0 F3600 X185.829 Y77.783
M204 S500
M205 X20 Y20
G1 F1800 X162.715 Y54.669 E151.44303
M204 S5000
M205 X30 Y30
G0 F3600 X162.15 Y54.669
M204 S500
M205 X20 Y20
G1 F1800 X185.829 Y78.349 E152.55684
M204 S5000
M205 X30 Y30
G0 F3600 X185.829 Y78.915
M204 S500
M205 X20 Y20
G1 F1800 X161.584 Y54.669 E153.69727
M204 S5000
M205 X30 Y30
G0 F3600 X161.018 Y54.669
M204 S500
M205 X20 Y20
G1 F1800 X185.829 Y79.48 E154.86431
M204 S5000
M205 X30 Y30
G0 F3600 X185.829 Y80.046
M204 S500
M205 X20 Y20
G1 F1800 X160.453 Y54.669 E156.05794
M204 S5000
M205 X30 Y30
G0 F3600 X159.887 Y54.669
M204 S500
M205 X20 Y20
G1 F1800 X185.829 Y80.612 E157.2782
M204 S5000
M205 X30 Y30
G0 F3600 X185.829 Y81.177
M204 S500
M205 X20 Y20
G1 F1800 X159.321 Y54.669 E158.52505
M204 S5000
M205 X30 Y30
G0 F3600 X158.756 Y54.669
M204 S500
M205 X20 Y20
G1 F1800 X185.829 Y81.743 E159.79851
M204 S5000
M205 X30 Y30
G0 F3600 X185.829 Y82.309
M204 S500
M205 X20 Y20
G1 F1800 X158.19 Y54.669 E161.09858
M204 S5000
M205 X30 Y30
G0 F3600 X157.624 Y54.669
M204 S500
M205 X20 Y20
G1 F1800 X185.829 Y82.875 E162.42528
M204 S5000
M205 X30 Y30
G0 F3600 X185.829 Y83.44
M204 S500
M205 X20 Y20
G1 F1800 X157.059 Y54.669 E163.77856
M204 S5000
M205 X30 Y30
G0 F3600 X156.493 Y54.669
M204 S500
M205 X20 Y20
G1 F1800 X185.829 Y84.006 E165.15846
M204 S5000
M205 X30 Y30
G0 F3600 X185.829 Y84.572
M204 S500
M205 X20 Y20
G1 F1800 X155.927 Y54.669 E166.56498
M204 S5000
M205 X30 Y30
G0 F3600 X155.361 Y54.669
M204 S500
M205 X20 Y20
G1 F1800 X185.829 Y85.137 E167.9981
M204 S5000
M205 X30 Y30
G0 F3600 X185.829 Y85.703
M204 S500
M205 X20 Y20
G1 F1800 X154.796 Y54.669 E169.45782
M204 S5000
M205 X30 Y30
G0 F3600 X154.23 Y54.669
M204 S500
M205 X20 Y20
G1 F1800 X185.829 Y86.269 E170.94417
M204 S5000
M205 X30 Y30
G0 F3600 X185.829 Y86.834
M204 S500
M205 X20 Y20
G1 F1800 X153.664 Y54.669 E172.45711
M204 S5000
M205 X30 Y30
G0 F3600 X153.099 Y54.669
M204 S500
M205 X20 Y20
G1 F1800 X185.829 Y87.4 E173.99665
M204 S5000
M205 X30 Y30
G0 F3600 X185.829 Y87.966
M204 S500
M205 X20 Y20
G1 F1800 X152.533 Y54.669 E175.56282
M204 S5000
M205 X30 Y30
G0 F3600 X151.967 Y54.669
M204 S500
M205 X20 Y20
G1 F1800 X185.829 Y88.531 E177.15558
M204 S5000
M205 X30 Y30
G0 F3600 X185.829 Y89.097
M204 S500
M205 X20 Y20
G1 F1800 X151.402 Y54.669 E178.77495
M204 S5000
M205 X30 Y30
G0 F3600 X150.836 Y54.669
M204 S500
M205 X20 Y20
G1 F1800 X185.829 Y89.663 E180.42093
M204 S5000
M205 X30 Y30
G0 F3600 X185.829 Y90.228
M204 S500
M205 X20 Y20
G1 F1800 X150.27 Y54.669 E182.09352
M204 S5000
M205 X30 Y30
G0 F3600 X149.705 Y54.669
M204 S500
M205 X20 Y20
G1 F1800 X185.829 Y90.794 E183.7927
M204 S5000
M205 X30 Y30
G0 F3600 X185.829 Y91.36
M204 S500
M205 X20 Y20
G1 F1800 X149.139 Y54.669 E185.51851
M204 S5000
M205 X30 Y30
G0 F3600 X148.573 Y54.669
M204 S500
M205 X20 Y20
G1 F1800 X185.829 Y91.926 E187.27094
M204 S5000
M205 X30 Y30
G0 F3600 X185.829 Y92.491
M204 S500
M205 X20 Y20
