;FLAVOR:Marlin
;TIME:8428
;Filament used: 4.73394m
;Layer height: 0.13125
;Generated with Cura_SteamEngine 3.6.0
M140 S65
M105
M190 S65
M104 S205
M105
M109 S205
M82 ;absolute extrusion mode
G21;(metric values)
G90;(absolute positioning)
M82;(set extruder to absolute mode)
M107;(start with the fan off)
G28;(Home the printer)
G92 E0;(Reset the extruder to 0)
G0 Z5 E5 F500;(Move up and prime the nozzle)
G0 X-1 Z0;(Move outside the printable area)
G1 Y60 E8 F500;(Draw a priming/wiping line to the rear)
G1 X-1;(Move a little closer to the print area)
G1 Y10 E16 F500;(draw more priming/wiping)
G1 E15 F250;(Small retract)
G92 E0;(Zero the extruder)
G92 E0
G1 F2400 E-2.5
;LAYER_COUNT:152
;LAYER:0
M107
G0 F4320 X10.449 Y88.231 Z0.263
;TYPE:SKIRT
G1 F2400 E0
G1 F1800 X88.231 Y10.449 E4.20971
G1 X88.709 Y10.028 E4.23408
G1 X89.236 Y9.67 E4.25847
G1 X89.803 Y9.381 E4.28282
G1 X90.402 Y9.165 E4.30719
G1 X91.024 Y9.026 E4.33158
G1 X91.658 Y8.966 E4.35595
G1 X92.294 Y8.985 E4.3803
G1 X92.924 Y9.084 E4.40471
G1 X93.535 Y9.262 E4.42906
G1 X94.12 Y9.514 E4.45344
G1 X94.668 Y9.838 E4.4778
G1 X95.172 Y10.228 E4.50219
G1 X95.409 Y10.449 E4.51459
G1 X109.551 Y24.591 E5.27998
G1 X109.972 Y25.069 E5.30436
G1 X110.33 Y25.596 E5.32874
G1 X110.619 Y26.163 E5.3531
G1 X110.835 Y26.762 E5.37747
G1 X110.974 Y27.384 E5.40186
G1 X111.034 Y28.018 E5.42623
G1 X111.015 Y28.654 E5.45058
G1 X110.916 Y29.284 E5.47499
G1 X110.738 Y29.895 E5.49934
G1 X110.486 Y30.48 E5.52372
G1 X110.162 Y31.028 E5.54808
G1 X109.772 Y31.532 E5.57247
G1 X109.551 Y31.769 E5.58487
G1 X31.769 Y109.551 E9.79458
G1 X31.291 Y109.972 E9.81896
G1 X30.764 Y110.33 E9.84334
G1 X30.197 Y110.619 E9.86769
G1 X29.598 Y110.835 E9.89206
G1 X28.976 Y110.974 E9.91645
G1 X28.342 Y111.034 E9.94082
G1 X27.706 Y111.015 E9.96517
G1 X27.076 Y110.916 E9.98958
G1 X26.465 Y110.738 E10.01393
G1 X25.88 Y110.486 E10.03831
G1 X25.332 Y110.162 E10.06267
G1 X24.828 Y109.772 E10.08706
G1 X24.591 Y109.551 E10.09946
G1 X10.449 Y95.409 E10.86486
G1 X10.028 Y94.931 E10.88923
G1 X9.67 Y94.404 E10.91361
G1 X9.381 Y93.837 E10.93797
G1 X9.165 Y93.238 E10.96234
G1 X9.026 Y92.616 E10.98673
G1 X8.966 Y91.982 E11.0111
G1 X8.985 Y91.346 E11.03545
G1 X9.084 Y90.716 E11.05986
G1 X9.262 Y90.105 E11.08421
G1 X9.514 Y89.52 E11.10859
G1 X9.838 Y88.972 E11.13295
G1 X10.002 Y88.76 E11.14321
G0 F1620 X10.228 Y88.468
G0 X10.449 Y88.231
G0 F4320 X10.697 Y88.479
G1 F2400 E11.16977
G1 F1800 X88.479 Y10.697 E15.37948
G1 X88.941 Y10.292 E15.40299
G1 X89.451 Y9.95 E15.42649
G1 X90.002 Y9.677 E15.45002
G1 X90.583 Y9.478 E15.47352
G1 X91.186 Y9.356 E15.49707
G1 X91.799 Y9.313 E15.52059
G1 X92.412 Y9.35 E15.54409
G1 X93.015 Y9.467 E15.5676
G1 X93.598 Y9.66 E15.5911
G1 X94.151 Y9.928 E15.61462
G1 X94.665 Y10.266 E15.63816
G1 X95.161 Y10.697 E15.6633
G1 X109.303 Y24.839 E16.4287
G1 X109.708 Y25.301 E16.45221
G1 X110.05 Y25.811 E16.47571
G1 X110.323 Y26.362 E16.49924
G1 X110.522 Y26.943 E16.52274
G1 X110.644 Y27.546 E16.54629
G1 X110.687 Y28.159 E16.56981
G1 X110.65 Y28.772 E16.59331
G1 X110.533 Y29.375 E16.61682
G1 X110.34 Y29.958 E16.64032
G1 X110.072 Y30.511 E16.66384
G1 X109.734 Y31.025 E16.68738
G1 X109.303 Y31.521 E16.71253
G1 X31.521 Y109.303 E20.92223
G1 X31.059 Y109.708 E20.94575
G1 X30.549 Y110.05 E20.96924
G1 X29.998 Y110.323 E20.99278
G1 X29.417 Y110.522 E21.01628
G1 X28.814 Y110.644 E21.03983
G1 X28.201 Y110.687 E21.06334
G1 X27.588 Y110.65 E21.08684
G1 X26.985 Y110.533 E21.11035
G1 X26.402 Y110.34 E21.13385
G1 X25.849 Y110.072 E21.15737
G1 X25.335 Y109.734 E21.18091
G1 X24.839 Y109.303 E21.20606
G1 X10.697 Y95.161 E21.97145
G1 X10.292 Y94.699 E21.99497
G1 X9.95 Y94.189 E22.01847
G1 X9.677 Y93.638 E22.042
G1 X9.478 Y93.057 E22.0655
G1 X9.356 Y92.454 E22.08905
G1 X9.313 Y91.841 E22.11256
G1 X9.35 Y91.228 E22.13606
G1 X9.467 Y90.625 E22.15957
G1 X9.66 Y90.042 E22.18307
G1 X9.928 Y89.489 E22.20659
G1 X10.246 Y89.005 E22.22875
G0 F1620 X10.266 Y88.975
G0 X10.697 Y88.479
G0 F4320 X10.944 Y88.726
G1 F2400 E22.25531
G1 F1800 X88.726 Y10.944 E26.46502
G1 X89.172 Y10.556 E26.48764
G1 X89.666 Y10.23 E26.5103
G1 X90.199 Y9.975 E26.53291
G1 X90.761 Y9.793 E26.55552
G1 X91.343 Y9.689 E26.57814
G1 X91.934 Y9.664 E26.60078
G1 X92.523 Y9.72 E26.62342
G1 X93.099 Y9.854 E26.64605
G1 X93.651 Y10.065 E26.66867
G1 X94.17 Y10.348 E26.69129
G1 X94.646 Y10.698 E26.7139
G1 X94.914 Y10.944 E26.72783
G1 X109.056 Y25.086 E27.49322
G1 X109.444 Y25.532 E27.51584
G1 X109.77 Y26.026 E27.53849
G1 X110.025 Y26.559 E27.5611
G1 X110.207 Y27.121 E27.58371
G1 X110.311 Y27.703 E27.60634
G1 X110.336 Y28.294 E27.62897
G1 X110.28 Y28.883 E27.65162
G1 X110.146 Y29.459 E27.67425
G1 X109.935 Y30.011 E27.69686
G1 X109.652 Y30.53 E27.71949
G1 X109.302 Y31.006 E27.7421
G1 X109.056 Y31.274 E27.75602
G1 X31.274 Y109.056 E31.96573
G1 X30.828 Y109.444 E31.98835
G1 X30.334 Y109.77 E32.011
G1 X29.801 Y110.025 E32.03361
G1 X29.239 Y110.207 E32.05622
G1 X28.657 Y110.311 E32.07885
G1 X28.066 Y110.336 E32.10149
G1 X27.477 Y110.28 E32.12413
G1 X26.901 Y110.146 E32.14676
G1 X26.349 Y109.935 E32.16938
G1 X25.83 Y109.652 E32.192
G1 X25.354 Y109.302 E32.21461
G1 X25.086 Y109.056 E32.22853
G1 X10.944 Y94.914 E32.99392
G1 X10.556 Y94.468 E33.01655
G1 X10.23 Y93.974 E33.0392
G1 X9.975 Y93.441 E33.06181
G1 X9.793 Y92.879 E33.08442
G1 X9.689 Y92.297 E33.10704
G1 X9.664 Y91.706 E33.12968
G1 X9.72 Y91.117 E33.15232
G1 X9.854 Y90.541 E33.17496
G1 X10.065 Y89.989 E33.19757
G1 X10.348 Y89.47 E33.22019
G1 X10.502 Y89.261 E33.23013
G0 F1620 X10.698 Y88.994
G0 X10.944 Y88.726
G0 F4320 X11.192 Y88.974
G1 F2400 E33.25669
G1 F1800 X88.974 Y11.192 E37.4664
G1 X89.402 Y10.82 E37.4881
G1 X89.878 Y10.512 E37.5098
G1 X90.393 Y10.274 E37.53151
G1 X90.936 Y10.111 E37.5532
G1 X91.497 Y10.026 E37.57492
G1 X92.064 Y10.02 E37.59662
G1 X92.626 Y10.095 E37.61832
G1 X93.172 Y10.247 E37.64001
G1 X93.692 Y10.475 E37.66174
G1 X94.174 Y10.773 E37.68342
G1 X94.666 Y11.192 E37.70815
G1 X108.808 Y25.334 E38.47355
G1 X109.18 Y25.762 E38.49525
G1 X109.488 Y26.238 E38.51695
G1 X109.726 Y26.753 E38.53866
G1 X109.889 Y27.296 E38.56035
G1 X109.974 Y27.857 E38.58207
G1 X109.98 Y28.424 E38.60377
G1 X109.905 Y28.986 E38.62547
G1 X109.753 Y29.532 E38.64716
G1 X109.525 Y30.052 E38.66889
G1 X109.227 Y30.534 E38.69057
G1 X108.808 Y31.026 E38.7153
G1 X31.026 Y108.808 E42.92501
G1 X30.598 Y109.18 E42.94671
G1 X30.122 Y109.488 E42.96841
G1 X29.607 Y109.726 E42.99012
G1 X29.064 Y109.889 E43.01182
G1 X28.503 Y109.974 E43.03353
G1 X27.936 Y109.98 E43.05523
G1 X27.374 Y109.905 E43.07693
G1 X26.828 Y109.753 E43.09862
G1 X26.308 Y109.525 E43.12035
G1 X25.826 Y109.227 E43.14204
G1 X25.334 Y108.808 E43.16677
G1 X11.192 Y94.666 E43.93216
G1 X10.82 Y94.238 E43.95386
G1 X10.512 Y93.762 E43.97556
G1 X10.274 Y93.247 E43.99727
G1 X10.111 Y92.704 E44.01897
G1 X10.026 Y92.143 E44.04068
G1 X10.02 Y91.576 E44.06238
G1 X10.095 Y91.014 E44.08408
G1 X10.247 Y90.468 E44.10577
G1 X10.475 Y89.948 E44.1275
G1 X10.748 Y89.506 E44.14738
G0 F1620 X10.773 Y89.466
G0 X11.192 Y88.974
G0 F4320 X11.439 Y89.221
G1 F2400 E44.17394
G1 F1800 X89.221 Y11.439 E48.38365
G1 X89.632 Y11.086 E48.40438
G1 X90.09 Y10.796 E48.42513
G1 X90.585 Y10.577 E48.44585
G1 X91.108 Y10.433 E48.46661
G1 X91.645 Y10.367 E48.48731
G1 X92.187 Y10.381 E48.50806
G1 X92.721 Y10.475 E48.52881
G1 X93.235 Y10.646 E48.54954
G1 X93.718 Y10.891 E48.57027
G1 X94.16 Y11.205 E48.59102
G1 X94.419 Y11.439 E48.60438
G1 X108.561 Y25.581 E49.36977
G1 X108.914 Y25.992 E49.3905
G1 X109.204 Y26.45 E49.41125
G1 X109.423 Y26.945 E49.43196
G1 X109.567 Y27.468 E49.45272
G1 X109.633 Y28.005 E49.47343
G1 X109.619 Y28.547 E49.49418
G1 X109.525 Y29.081 E49.51493
G1 X109.354 Y29.595 E49.53566
G1 X109.109 Y30.078 E49.55638
G1 X108.795 Y30.52 E49.57713
G1 X108.561 Y30.779 E49.59049
G1 X30.779 Y108.561 E53.8002
G1 X30.368 Y108.914 E53.82093
G1 X29.91 Y109.204 E53.84168
G1 X29.415 Y109.423 E53.86239
G1 X28.892 Y109.567 E53.88315
G1 X28.355 Y109.633 E53.90386
G1 X27.813 Y109.619 E53.92461
G1 X27.279 Y109.525 E53.94536
G1 X26.765 Y109.354 E53.96609
G1 X26.282 Y109.109 E53.98682
G1 X25.84 Y108.795 E54.00757
G1 X25.581 Y108.561 E54.02092
G1 X11.439 Y94.419 E54.78631
G1 X11.086 Y94.008 E54.80705
G1 X10.796 Y93.55 E54.82779
G1 X10.577 Y93.055 E54.84851
G1 X10.433 Y92.532 E54.86927
G1 X10.367 Y91.995 E54.88998
G1 X10.381 Y91.453 E54.91072
G1 X10.475 Y90.919 E54.93147
G1 X10.646 Y90.405 E54.95221
G1 X10.891 Y89.922 E54.97293
G1 X11.006 Y89.761 E54.9805
G0 F1620 X11.205 Y89.48
G0 X11.439 Y89.221
G0 F4320 X11.687 Y89.469
G1 F2400 E55.00706
G1 F1800 X89.469 Y11.687 E59.21677
G1 X89.86 Y11.352 E59.23648
G1 X90.299 Y11.081 E59.25622
G1 X90.774 Y10.882 E59.27593
G1 X91.275 Y10.758 E59.29568
G1 X91.788 Y10.713 E59.31539
G1 X92.302 Y10.748 E59.3351
G1 X92.805 Y10.862 E59.35484
G1 X93.284 Y11.052 E59.37456
G1 X93.727 Y11.315 E59.39428
G1 X94.171 Y11.687 E59.41645
G1 X108.313 Y25.829 E60.18184
G1 X108.648 Y26.22 E60.20154
G1 X108.919 Y26.659 E60.22129
G1 X109.118 Y27.134 E60.241
G1 X109.242 Y27.635 E60.26075
G1 X109.287 Y28.148 E60.28045
G1 X109.252 Y28.662 E60.30017
G1 X109.138 Y29.165 E60.31991
G1 X108.948 Y29.644 E60.33963
G1 X108.685 Y30.087 E60.35935
G1 X108.313 Y30.531 E60.38151
G1 X30.531 Y108.313 E64.59122
G1 X30.14 Y108.648 E64.61093
G1 X29.701 Y108.919 E64.63067
G1 X29.226 Y109.118 E64.65038
G1 X28.725 Y109.242 E64.67013
G1 X28.212 Y109.287 E64.68984
G1 X27.698 Y109.252 E64.70955
G1 X27.195 Y109.138 E64.72929
G1 X26.716 Y108.948 E64.74901
G1 X26.273 Y108.685 E64.76873
G1 X25.829 Y108.313 E64.7909
G1 X11.687 Y94.171 E65.55629
G1 X11.352 Y93.78 E65.57599
G1 X11.081 Y93.341 E65.59574
G1 X10.882 Y92.866 E65.61545
G1 X10.758 Y92.365 E65.6352
G1 X10.713 Y91.852 E65.65491
G1 X10.748 Y91.338 E65.67462
G1 X10.862 Y90.835 E65.69436
G1 X11.052 Y90.356 E65.71408
G1 X11.257 Y90.011 E65.72944
G0 F1620 X11.315 Y89.913
G0 X11.687 Y89.469
G0 F4320 X11.934 Y89.716
G1 F2400 E65.756
G1 F1800 X89.716 Y11.934 E69.96571
G1 X90.088 Y11.619 E69.98436
G1 X90.506 Y11.369 E70.003
G1 X90.96 Y11.19 E70.02168
G1 X91.436 Y11.088 E70.04031
G1 X91.923 Y11.065 E70.05896
G1 X92.407 Y11.122 E70.07762
G1 X92.876 Y11.257 E70.09629
G1 X93.316 Y11.466 E70.11493
G1 X93.716 Y11.745 E70.1336
G1 X93.924 Y11.934 E70.14435
G1 X108.066 Y26.076 E70.90975
G1 X108.381 Y26.448 E70.9284
G1 X108.631 Y26.866 E70.94704
G1 X108.81 Y27.32 E70.96572
G1 X108.912 Y27.796 E70.98435
G1 X108.935 Y28.283 E71.003
G1 X108.878 Y28.767 E71.02165
G1 X108.743 Y29.236 E71.04033
G1 X108.534 Y29.676 E71.05897
G1 X108.255 Y30.076 E71.07764
G1 X108.066 Y30.284 E71.08839
G1 X30.284 Y108.066 E75.2981
G1 X29.912 Y108.381 E75.31676
G1 X29.494 Y108.631 E75.3354
G1 X29.04 Y108.81 E75.35407
G1 X28.564 Y108.912 E75.3727
G1 X28.077 Y108.935 E75.39136
G1 X27.593 Y108.878 E75.41001
G1 X27.124 Y108.743 E75.42869
G1 X26.684 Y108.534 E75.44733
G1 X26.284 Y108.255 E75.46599
G1 X26.076 Y108.066 E75.47675
G1 X11.934 Y93.924 E76.24214
G1 X11.619 Y93.552 E76.2608
G1 X11.369 Y93.134 E76.27943
G1 X11.19 Y92.68 E76.29811
G1 X11.088 Y92.204 E76.31674
G1 X11.065 Y91.717 E76.3354
G1 X11.122 Y91.233 E76.35405
G1 X11.257 Y90.764 E76.37273
G1 X11.466 Y90.324 E76.39137
G1 X11.509 Y90.263 E76.39423
G0 F1620 X11.745 Y89.924
G0 X11.934 Y89.716
G0 F4320 X12.182 Y89.964
G1 F2400 E76.42078
G1 F1800 X89.964 Y12.182 E80.63049
G1 X90.315 Y11.888 E80.64801
G1 X90.711 Y11.659 E80.66552
G1 X91.141 Y11.502 E80.68304
G1 X91.592 Y11.423 E80.70056
G1 X92.05 Y11.423 E80.71809
G1 X92.501 Y11.503 E80.73562
G1 X92.931 Y11.66 E80.75314
G1 X93.327 Y11.889 E80.77064
G1 X93.676 Y12.182 E80.78808
G1 X107.818 Y26.324 E81.55347
G1 X108.112 Y26.675 E81.571
G1 X108.341 Y27.071 E81.5885
G1 X108.498 Y27.501 E81.60602
G1 X108.577 Y27.952 E81.62354
G1 X108.577 Y28.41 E81.64107
G1 X108.497 Y28.861 E81.6586
G1 X108.34 Y29.291 E81.67612
G1 X108.111 Y29.687 E81.69363
G1 X107.818 Y30.036 E81.71107
G1 X30.036 Y107.818 E85.92077
G1 X29.685 Y108.112 E85.9383
G1 X29.289 Y108.341 E85.9558
G1 X28.859 Y108.498 E85.97332
G1 X28.408 Y108.577 E85.99084
G1 X27.95 Y108.577 E86.00837
G1 X27.499 Y108.497 E86.0259
G1 X27.069 Y108.34 E86.04342
G1 X26.673 Y108.111 E86.06092
G1 X26.324 Y107.818 E86.07836
G1 X12.182 Y93.676 E86.84376
G1 X11.888 Y93.325 E86.86128
G1 X11.659 Y92.929 E86.87878
G1 X11.502 Y92.499 E86.8963
G1 X11.423 Y92.048 E86.91383
G1 X11.423 Y91.59 E86.93135
G1 X11.503 Y91.139 E86.94888
G1 X11.66 Y90.709 E86.9664
G1 X11.77 Y90.52 E86.97477
G0 F1620 X11.889 Y90.313
G0 X12.182 Y89.964
G0 F4320 X12.429 Y90.211
G1 F2400 E87.00133
G1 F1800 X90.211 Y12.429 E91.21104
G1 X90.54 Y12.158 E91.22735
G1 X90.913 Y11.952 E91.24366
G1 X91.318 Y11.819 E91.25997
G1 X91.74 Y11.764 E91.27626
G1 X92.166 Y11.789 E91.29259
G1 X92.579 Y11.893 E91.30889
G1 X92.966 Y12.073 E91.32522
G1 X93.429 Y12.429 E91.34757
G1 X107.571 Y26.571 E92.11296
G1 X107.842 Y26.9 E92.12928
G1 X108.048 Y27.273 E92.14558
G1 X108.181 Y27.678 E92.1619
G1 X108.236 Y28.1 E92.17818
G1 X108.211 Y28.526 E92.19451
G1 X108.107 Y28.939 E92.21081
G1 X107.927 Y29.326 E92.22715
G1 X107.571 Y29.789 E92.2495
G1 X29.789 Y107.571 E96.45921
G1 X29.46 Y107.842 E96.47552
G1 X29.087 Y108.048 E96.49182
G1 X28.682 Y108.181 E96.50814
G1 X28.26 Y108.236 E96.52442
G1 X27.834 Y108.211 E96.54076
G1 X27.421 Y108.107 E96.55705
G1 X27.034 Y107.927 E96.57339
G1 X26.571 Y107.571 E96.59574
G1 X12.429 Y93.429 E97.36113
G1 X12.158 Y93.1 E97.37744
G1 X11.952 Y92.727 E97.39375
G1 X11.819 Y92.322 E97.41006
G1 X11.764 Y91.9 E97.42635
G1 X11.789 Y91.474 E97.44268
G1 X11.893 Y91.061 E97.45898
G1 X12.027 Y90.773 E97.47114
G0 F1620 X12.073 Y90.674
G0 X12.429 Y90.211
G0 F4320 X12.677 Y90.459
G1 F2400 E97.4977
G1 F1800 X90.459 Y12.677 E101.7074
G1 X90.763 Y12.429 E101.72242
G1 X91.11 Y12.249 E101.73738
G1 X91.488 Y12.142 E101.75241
G1 X91.878 Y12.114 E101.76738
G1 X92.267 Y12.166 E101.7824
G1 X92.637 Y12.295 E101.79739
G1 X92.973 Y12.497 E101.8124
G1 X93.181 Y12.677 E101.82292
G1 X107.323 Y26.819 E102.58831
G1 X107.571 Y27.123 E102.60333
G1 X107.751 Y27.47 E102.61829
G1 X107.858 Y27.848 E102.63332
G1 X107.886 Y28.238 E102.64829
G1 X107.834 Y28.627 E102.66331
G1 X107.705 Y28.997 E102.6783
G1 X107.503 Y29.333 E102.6933
G1 X107.323 Y29.541 E102.70383
G1 X29.541 Y107.323 E106.91354
G1 X29.237 Y107.571 E106.92855
G1 X28.89 Y107.751 E106.94351
G1 X28.512 Y107.858 E106.95855
G1 X28.122 Y107.886 E106.97351
G1 X27.733 Y107.834 E106.98853
G1 X27.363 Y107.705 E107.00353
G1 X27.027 Y107.503 E107.01853
G1 X26.819 Y107.323 E107.02906
G1 X12.677 Y93.181 E107.79445
G1 X12.429 Y92.877 E107.80946
G1 X12.249 Y92.53 E107.82442
G1 X12.142 Y92.152 E107.83946
G1 X12.114 Y91.762 E107.85442
G1 X12.166 Y91.373 E107.86944
G1 X12.287 Y91.028 E107.88343
G0 F1620 X12.295 Y91.003
G0 X12.497 Y90.667
G0 X12.677 Y90.459
G0 F4320 X12.924 Y90.706
G1 F2400 E107.90999
G1 F1800 X90.706 Y12.924 E112.1197
G1 X90.984 Y12.703 E112.13329
G1 X91.303 Y12.55 E112.14683
G1 X91.649 Y12.472 E112.1604
G1 X92.003 Y12.474 E112.17395
G1 X92.348 Y12.554 E112.18751
G1 X92.667 Y12.71 E112.20109
G1 X92.934 Y12.924 E112.21419
G1 X107.076 Y27.066 E112.97958
G1 X107.297 Y27.344 E112.99317
G1 X107.45 Y27.663 E113.00671
G1 X107.528 Y28.009 E113.02029
G1 X107.526 Y28.363 E113.03383
G1 X107.446 Y28.708 E113.04739
G1 X107.29 Y29.027 E113.06098
G1 X107.076 Y29.294 E113.07407
G1 X29.294 Y107.076 E117.28378
G1 X29.016 Y107.297 E117.29737
G1 X28.697 Y107.45 E117.31091
G1 X28.351 Y107.528 E117.32448
G1 X27.997 Y107.526 E117.33803
G1 X27.652 Y107.446 E117.35159
G1 X27.333 Y107.29 E117.36518
G1 X27.066 Y107.076 E117.37827
G1 X12.924 Y92.934 E118.14366
G1 X12.703 Y92.656 E118.15725
G1 X12.55 Y92.337 E118.17079
G1 X12.472 Y91.991 E118.18437
G1 X12.474 Y91.637 E118.19791
G1 X12.554 Y91.292 E118.21147
G1 X12.556 Y91.289 E118.21161
G0 F1620 X12.71 Y90.973
G0 X12.924 Y90.706
G0 F4320 X13.172 Y90.954
G1 F2400 E118.23816
G1 F1800 X90.954 Y13.172 E122.44787
G1 X91.201 Y12.981 E122.45982
G1 X91.489 Y12.859 E122.47179
G1 X91.798 Y12.813 E122.48375
G1 X92.108 Y12.847 E122.49568
G1 X92.4 Y12.959 E122.50765
G1 X92.686 Y13.172 E122.5213
G1 X106.828 Y27.314 E123.28669
G1 X107.019 Y27.561 E123.29864
G1 X107.141 Y27.849 E123.31061
